task1.1/build/res/icons/food-icon.svg

<svg width="32" height="32" viewBox="0 0 32 32" fill="none" xmlns="http://www.w3.org/2000/svg">
<path d="M26.4281 0H26.4259C25.5846 0 24.8604 0.628042 24.7414 1.46094L22.263 18.8097C22.1449 19.6364 22.6667 20.4126 23.4769 20.6151L24.3077 20.8228L23.861 29.7576C23.8315 30.3475 24.0394 30.9081 24.4466 31.3362C24.8537 31.7642 25.4033 31.9999 25.994 31.9999C27.1716 31.9999 28.1296 31.0419 28.1296 29.8643V1.70159C28.1296 0.763299 27.3663 0 26.4281 0ZM27.0929 29.8642C27.0929 30.4702 26.5999 30.9631 25.994 30.9631C25.69 30.9631 25.4073 30.8419 25.1977 30.6217C24.9882 30.4015 24.8812 30.113 24.8964 29.8094L25.3644 20.4491C25.3767 20.2019 25.2125 19.9804 24.9723 19.9204L23.7283 19.6094C23.4352 19.5361 23.2465 19.2554 23.2892 18.9563L25.7676 1.60753C25.8141 1.28214 26.0971 1.03671 26.4258 1.03671H26.428C26.7946 1.03671 27.0929 1.33494 27.0929 1.70159V29.8642Z" fill="black"/>
<path d="M19.8353 0.49244C19.821 0.206514 19.5771 -0.0131317 19.2917 0.000622029C19.0058 0.0149287 18.7856 0.25828 18.7999 0.544206L19.2426 9.39948H17.6243V0.518357C17.6243 0.232086 17.3922 0 17.1059 0C16.8196 0 16.5875 0.232086 16.5875 0.518357V9.39955H14.9692L15.4118 0.544275C15.4261 0.258349 15.2059 0.0149978 14.92 0.000691143C14.6342 -0.0138229 14.3907 0.206583 14.3764 0.492509L13.8549 10.9237C13.8265 11.4918 14.1029 12.0408 14.5762 12.3563L15.2025 12.7738C15.3722 12.8869 15.4698 13.0762 15.4638 13.28L14.975 29.8091C14.9589 30.3895 15.173 30.9383 15.5777 31.3545C15.9825 31.7707 16.5252 32 17.1058 32C17.6865 32 18.2291 31.7708 18.6339 31.3545C19.0387 30.9383 19.2528 30.3895 19.2366 29.8082L18.7479 13.28C18.7419 13.0762 18.8396 12.8869 19.0092 12.7738L19.6355 12.3563C20.1088 12.0408 20.3852 11.4918 20.3568 10.9237L19.8353 0.49244ZM19.0606 11.4936L18.4343 11.9111C17.9652 12.2238 17.6951 12.747 17.7118 13.3105L18.2005 29.8379C18.2088 30.136 18.0988 30.4179 17.8909 30.6317C17.6829 30.8454 17.4042 30.9632 17.106 30.9632C16.8077 30.9632 16.5289 30.8454 16.321 30.6317C16.1131 30.4179 16.0032 30.136 16.0115 29.8388L16.5002 13.3105C16.5168 12.747 16.2467 12.2238 15.7777 11.9111L15.1513 11.4936C14.9802 11.3795 14.8802 11.1809 14.8905 10.9754L14.9175 10.4362H19.2945L19.3215 10.9754C19.3317 11.1809 19.2318 11.3795 19.0606 11.4936Z" fill="black"/>
<path d="M8.25925 0C7.17927 0 5.68418 0.542202 4.69488 3.12535C4.0864 4.71401 3.87048 6.58597 3.87048 7.70625C3.87048 9.2486 4.65763 10.6496 5.97605 11.454C6.34277 11.6778 6.55578 12.056 6.54583 12.4655L6.12278 29.8107C6.10861 30.3912 6.32418 30.9398 6.72981 31.3554C7.13538 31.771 7.67855 31.9999 8.25925 31.9999C8.83995 31.9999 9.38318 31.771 9.78875 31.3554C10.1944 30.9399 10.4099 30.3912 10.3958 29.8107L9.97266 12.4656C9.96271 12.056 10.1757 11.6778 10.5424 11.454C11.8609 10.6496 12.648 9.24853 12.648 7.70625C12.648 6.58597 12.4321 4.71408 11.8236 3.12535C10.8344 0.542202 9.3393 0 8.25925 0ZM10.0024 10.569C9.32596 10.9818 8.91742 11.7181 8.93622 12.4908L9.35927 29.8359C9.3666 30.1348 9.2556 30.4173 9.04674 30.6313C8.83787 30.8453 8.55817 30.9631 8.25918 30.9631C7.96019 30.9631 7.68048 30.8453 7.47162 30.6313C7.26276 30.4174 7.15176 30.1348 7.15908 29.8359L7.58213 12.4908C7.601 11.7182 7.19247 10.9818 6.51597 10.569C5.50856 9.9544 4.90713 8.88416 4.90713 7.70625C4.90713 5.53018 5.72648 1.03671 8.25918 1.03671C10.7919 1.03671 11.6112 5.53018 11.6112 7.70625C11.6113 8.88416 11.0099 9.9544 10.0024 10.569Z" fill="black"/>
</svg>

<svg width="32" height="32" fill="none" xmlns="http://www.w3.org/2000/svg"><path d="M26.428 0h-.002a1.71 1.71 0 00-1.685 1.46l-2.478 17.35a1.62 1.62 0 001.214 1.805l.83.208-.446 8.935c-.03.59.178 1.15.586 1.578.407.428.956.664 1.547.664a2.138 2.138 0 002.136-2.136V1.702C28.13.763 27.366 0 26.428 0zm.665 29.864a1.1 1.1 0 11-2.197-.055l.468-9.36a.518.518 0 00-.392-.529l-1.244-.31a.586.586 0 01-.439-.654l2.479-17.348a.668.668 0 01.658-.571h.002c.367 0 .665.298.665.665v28.162zM19.835.492A.519.519 0 0018.8.544l.443 8.855h-1.619V.52a.518.518 0 00-1.037 0V9.4H14.97l.443-8.855a.518.518 0 10-1.036-.051l-.521 10.43a1.632 1.632 0 00.721 1.433l.627.418a.58.58 0 01.26.506l-.488 16.53c-.016.58.198 1.128.603 1.545.405.416.947.645 1.528.645.58 0 1.123-.23 1.528-.645.405-.417.619-.965.603-1.547l-.49-16.528a.584.584 0 01.262-.506l.627-.418c.473-.315.75-.864.72-1.432L19.837.492zm-.774 11.002l-.627.417a1.615 1.615 0 00-.722 1.4l.489 16.527c.008.298-.102.58-.31.794a1.087 1.087 0 01-.785.331 1.09 1.09 0 01-.785-.331 1.086 1.086 0 01-.31-.793l.49-16.529a1.615 1.615 0 00-.723-1.399l-.627-.417a.59.59 0 01-.26-.519l.027-.539h4.377l.026.54a.59.59 0 01-.26.518zM8.26 0C7.18 0 5.683.542 4.694 3.125c-.609 1.589-.825 3.461-.825 4.581a4.36 4.36 0 002.106 3.748c.367.224.58.602.57 1.011l-.423 17.346a2.12 2.12 0 00.607 1.544A2.12 2.12 0 008.26 32a2.12 2.12 0 001.529-.645 2.12 2.12 0 00.607-1.544l-.423-17.345a1.15 1.15 0 01.57-1.012 4.36 4.36 0 002.105-3.748c0-1.12-.216-2.992-.824-4.58C10.834.541 9.339 0 8.259 0zm1.742 10.569a2.204 2.204 0 00-1.066 1.922l.423 17.345c.008.299-.103.581-.312.795a1.092 1.092 0 01-.788.332 1.09 1.09 0 01-.787-.332 1.092 1.092 0 01-.313-.795l.423-17.345a2.204 2.204 0 00-1.066-1.922 3.33 3.33 0 01-1.609-2.863c0-2.176.82-6.67 3.352-6.67 2.533 0 3.352 4.494 3.352 6.67a3.33 3.33 0 01-1.609 2.863z" fill="#000"/></svg>
